icon-themes/colibre_svg/cmd/lc_dismantle.svg

<svg viewBox="0 0 24 24" xmlns="http://www.w3.org/2000/svg"><path d="m10 4v4h-7v13h11v-4h7v-13z" fill="#fff"/><path d="m10 3c-.554 0-1 .446-1 1v3h-6c-.554 0-1 .446-1 1v13c0 .554.446 1 1 1h11c.554 0 1-.446 1-1v-3h6c.554 0 1-.446 1-1v-13c0-.554-.446-1-1-1zm0 1h11v13h-6v-9c0-.554-.446-1-1-1h-4zm-7 4h11v13h-11z" fill="#4d82b8"/></svg>

<svg xmlns="http://www.w3.org/2000/svg" viewBox="0 0 24 24">
  <path
     style="fill:#ffffff"
     d="M 10 4 L 10 8 L 3 8 L 3 21 L 14 21 L 14 17 L 21 17 L 21 4 L 10 4 z "
     />
  <path
     d="M 10 3 C 9.446 3 9 3.446 9 4 L 9 7 L 3 7 C 2.446 7 2 7.446 2 8 L 2 21 C 2 21.554 2.446 22 3 22 L 14 22 C 14.554 22 15 21.554 15 21 L 15 18 L 21 18 C 21.554 18 22 17.554 22 17 L 22 4 C 22 3.446 21.554 3 21 3 L 10 3 z M 10 4 L 21 4 L 21 17 L 15 17 L 15 8 C 15 7.446 14.554 7 14 7 L 10 7 L 10 4 z M 3 8 L 14 8 L 14 21 L 3 21 L 3 8 z "
     style="fill:#4d82b8" />
</svg>
